X:98
T: Xinda lunchuan xia jianghe
N: C1591
O: China,Jiangsu, Nanjing
S: III, 506]
R: Shange, Maoyuzishu diao]
M: 2/4
L: 1/16
K: G
d2BAd2BA | G4G4 | A3Bd4 | d2A2d2BA | G4G4 |
B2BBA2G2 | GAGED4 | EGDEG4 | A2E2GAGE | D4D4

@@@ Tune index: 6653
